X: 14
T: the Longford Collector
R: reel
Z: 2006 John Chambers <jc:trillian.mit.edu>
B: "100 Essential Irish Session Tunes" 1995 Dave Mallinson, ed.
M: C|
L: 1/8
K: G
E |\
"G"G3A BddB | eBdB "D"eBdB | "G"G2GA BddB | "Am"AcBA "D"GEDE |\
"G"G3A BddB | eBdB "D"d2ef | "C"gbaf "G"gedB | "Am"AcBA "D"GED :|
|: f |\
"G"g3a gedf | "Em"eBdB "D"d2ef | "G"gbaf "Em"gedB | "Am"AcBA "D"GEDf |\
"Em"g2ga gedf | eBdB "D"d2ef | "C"gbaf "G"gedB | "Am"AcBA "D"GED :|
